X:1
T:Title
%%score { 1 | 2 }
L:1/8
M:3/4
K:Db
V:1 treble nm="Grand Piano"
V:2 bass 
V:1
 z2 z2[Q:1/4=100] [DF][EG] | [FA]3 [DF] [Fd][Ac] | [Ac]2 B2 EF | G3 E [CB][CA] |[M:2/4] [DF]4 | %5
[M:1/4] [DF][EG] |[M:3/4] [FA]3 [Fd] [Fe][Fd] | [Gd]2 [DGB]2 [DAc][DGB] | %8
 [DFA][DF] [A,EG]2[K:bass] [F,CE]2 |[M:2/4] [F,D]4 |[M:1/4][K:treble] [A,FA][Fd] | %11
[M:3/4] c3 c [Ge][Gc] | [Fd]2 [FA]2 [DF][FA] | B3 d dB |[M:2/4] [FA]4 |[M:1/4] DE | %16
[M:3/4] F3 [FA] [Fd][Af] | e2 B2 BB | A3 c [Ge][Gc] |[M:2/4] [Fd]4 |] %20
V:2
 z2 z2 [D,A,][D,A,] | [D,D]3 [D,A,] [D,A,][F,D] | [G,D]2 [G,DG]2 [G,A,C][F,A,D] | %3
 [E,A,C]3 [A,C] [A,,A,][A,,A,] |[M:2/4] [D,A,]4 |[M:1/4] [D,A,][D,A,] | %6
[M:3/4] [D,D]3 [D,A,] [D,_C][D,C] | [G,B,]2 G,2 G,G, | A,A, A,,2 A,,2 |[M:2/4] D,4 | %10
[M:1/4] D,[D,A,] |[M:3/4] [A,E]3 [A,E] [A,,A,][A,,A,] | [D,A,]2 [D,D]2 [D,A,][D,D] | %13
 [G,DG]3 [G,B,G] [G,B,G][G,DG] |[M:2/4] [D,D]4 |[M:1/4] [D,F,][D,G,D] | %16
[M:3/4] [D,A,D]3 [D,D] [D,D][D,D] | [G,B,G]2 [G,DG]2 [G,DG][G,DG] | %18
 [A,CG]3 [B,G][K:bass] [A,,A,][A,,A,] |[M:2/4] [D,A,]4 |] %20

